Newaita-dark/actions/24/document-decrypt.svg

<svg height="24" viewBox="0 0 24 24" width="24" xmlns="http://www.w3.org/2000/svg"><g fill="#e0e0e0"><path d="m11.90625 2.171875c-3.296875 0-5.953125 2.65625-5.953125 5.953125v.496094h1.984375v-.496094c0-2.199219 1.769531-3.96875 3.96875-3.96875s3.96875 1.769531 3.96875 3.96875v5.953125h1.984375v-5.953125c0-3.296875-2.652344-5.953125-5.953125-5.953125zm0 0"/><path d="m6.449219 8.125h.992187c.273438 0 .496094.167969.496094.371094v.25c0 .207031-.222656.371094-.496094.371094h-.992187c-.273438 0-.496094-.164063-.496094-.371094v-.25c0-.203125.222656-.371094.496094-.371094zm0 0"/><path d="m5.953125 12.09375c-1.097656 0-1.984375.886719-1.984375 1.984375v5.953125c0 1.101562.886719 1.988281 1.984375 1.988281h11.90625c1.101563 0 1.984375-.886719 1.984375-1.988281v-5.953125c0-1.097656-.882812-1.984375-1.984375-1.984375zm.992187 1.984375h9.921876c.550781 0 .992187.445313.992187.992187v3.96875c0 .550782-.441406.992188-.992187.992188h-9.921876c-.550781 0-.992187-.441406-.992187-.992188v-3.96875c0-.546874.441406-.992187.992187-.992187zm0 0"/></g></svg>

<svg xmlns="http://www.w3.org/2000/svg" xmlns:xlink="http://www.w3.org/1999/xlink" width="24px" height="24px" viewBox="0 0 24 24" version="1.1">
<g id="surface1">
     <defs>
  <style id="current-color-scheme" type="text/css">
   .ColorScheme-Text { color:#eeeeee; } .ColorScheme-Highlight { color:#424242; }
  </style>
 </defs>
<path style="fill:currentColor" class="ColorScheme-Text" d="M 11.90625 2.171875 C 8.609375 2.171875 5.953125 4.828125 5.953125 8.125 L 5.953125 8.621094 L 7.9375 8.621094 L 7.9375 8.125 C 7.9375 5.925781 9.707031 4.15625 11.90625 4.15625 C 14.105469 4.15625 15.875 5.925781 15.875 8.125 L 15.875 14.078125 L 17.859375 14.078125 L 17.859375 8.125 C 17.859375 4.828125 15.207031 2.171875 11.90625 2.171875 Z M 11.90625 2.171875 "/>
     <defs>
  <style id="current-color-scheme" type="text/css">
   .ColorScheme-Text { color:#eeeeee; } .ColorScheme-Highlight { color:#424242; }
  </style>
 </defs>
<path style="fill:currentColor" class="ColorScheme-Text" d="M 6.449219 8.125 L 7.441406 8.125 C 7.714844 8.125 7.9375 8.292969 7.9375 8.496094 L 7.9375 8.746094 C 7.9375 8.953125 7.714844 9.117188 7.441406 9.117188 L 6.449219 9.117188 C 6.175781 9.117188 5.953125 8.953125 5.953125 8.746094 L 5.953125 8.496094 C 5.953125 8.292969 6.175781 8.125 6.449219 8.125 Z M 6.449219 8.125 "/>
     <defs>
  <style id="current-color-scheme" type="text/css">
   .ColorScheme-Text { color:#eeeeee; } .ColorScheme-Highlight { color:#424242; }
  </style>
 </defs>
<path style="fill:currentColor" class="ColorScheme-Text" d="M 5.953125 12.09375 C 4.855469 12.09375 3.96875 12.980469 3.96875 14.078125 L 3.96875 20.03125 C 3.96875 21.132812 4.855469 22.019531 5.953125 22.019531 L 17.859375 22.019531 C 18.960938 22.019531 19.84375 21.132812 19.84375 20.03125 L 19.84375 14.078125 C 19.84375 12.980469 18.960938 12.09375 17.859375 12.09375 Z M 6.945312 14.078125 L 16.867188 14.078125 C 17.417969 14.078125 17.859375 14.523438 17.859375 15.070312 L 17.859375 19.039062 C 17.859375 19.589844 17.417969 20.03125 16.867188 20.03125 L 6.945312 20.03125 C 6.394531 20.03125 5.953125 19.589844 5.953125 19.039062 L 5.953125 15.070312 C 5.953125 14.523438 6.394531 14.078125 6.945312 14.078125 Z M 6.945312 14.078125 "/>
</g>
</svg>
